tn/adjust-horizontal.svg

<svg viewBox="0 0 15 15" fill="none" xmlns="http://www.w3.org/2000/svg" height="1em" width="1em">
  <path d="M9.00001 1.31134e-07L6.00001 0L6.00001 2L7.89166e-06 2L7.84795e-06 3L6.00001 3V5H9.00001V3.00001L15 3L15 2L9.00001 2.00001V1.31134e-07Z" fill="black"/>
  <path d="M5.00001 5H2.00001L2.00001 7L7.67311e-06 7L7.62939e-06 8L2.00001 8L2.00001 10L5.00001 10V8L15 8V7L5.00001 7V5Z" fill="black"/>
  <path d="M13 10L10 10V12L8.40822e-06 12L8.36451e-06 13L10 13V15L13 15V13L15 13V12L13 12V10Z" fill="black"/>
</svg>

<svg viewBox="0 0 15 15" fill="none" xmlns="http://www.w3.org/2000/svg" height="1em" width="1em">
  <path d="M9 0H6v2H0v1h6v2h3V3h6V2H9V0ZM5 5H2v2H0v1h2v2h3V8h10V7H5V5Zm8 5h-3v2H0v1h10v2h3v-2h2v-1h-2v-2Z" fill="#000"/>
</svg>
